packages/astro-components-stencil/src/icons/battery-alert.svg

<svg xmlns="http://www.w3.org/2000/svg" viewBox="0 0 24 24"><g xmlns="http://www.w3.org/2000/svg" id="battery-alert" fill-rule="nonzero">
            <path d="M15.67 4H14V3c0-.55-.45-1-1-1h-2c-.55 0-1 .45-1 1v1H8.33C7.6 4 7 4.6 7 5.33v15.33C7 21.4 7.6 22 8.34 22h7.32c.74 0 1.34-.6 1.34-1.33V5.33C17 4.6 16.4 4 15.67 4zM13 18h-2v-2h2v2zm0-5c0 .55-.45 1-1 1s-1-.45-1-1v-3c0-.55.45-1 1-1s1 .45 1 1v3z"/>
        </g></svg>

<svg width="24" height="24" viewBox="0 0 24 24" fill="none" xmlns="http://www.w3.org/2000/svg">
<path fill-rule="evenodd" clip-rule="evenodd" d="M15.67 4H14V3C14 2.45 13.55 2 13 2H11C10.45 2 10 2.45 10 3V4H8.33C7.6 4 7 4.6 7 5.33V20.66C7 21.4 7.6 22 8.34 22H15.66C16.4 22 17 21.4 17 20.67V5.33C17 4.6 16.4 4 15.67 4ZM13 16V18H11V16H13ZM12 14C12.55 14 13 13.55 13 13V10C13 9.45 12.55 9 12 9C11.45 9 11 9.45 11 10V13C11 13.55 11.45 14 12 14Z" fill="black"/>
</svg>
